findly-builder/apps/searchassist/src/assets/icons/overview/connections.svg

<svg width="18" height="16" viewBox="0 0 18 16" fill="none" xmlns="http://www.w3.org/2000/svg">
<path d="M16.923 0.307617H0.923002C0.583134 0.307617 0.307617 0.583134 0.307617 0.923002V15.0768C0.307617 15.4167 0.583134 15.6922 0.923002 15.6922H16.923C17.2629 15.6922 17.5384 15.4167 17.5384 15.0768V0.923002C17.5384 0.583134 17.2629 0.307617 16.923 0.307617Z" fill="#EF9AA3"/>
<path d="M17.2307 15.6923H0.61531C0.533704 15.6923 0.455442 15.6599 0.397738 15.6021C0.340035 15.5444 0.307617 15.4662 0.307617 15.3846C0.307617 15.0582 0.437287 14.7451 0.668101 14.5143C0.898915 14.2835 1.21197 14.1538 1.53839 14.1538H16.3076C16.634 14.1538 16.9471 14.2835 17.1779 14.5143C17.4087 14.7451 17.5384 15.0582 17.5384 15.3846C17.5384 15.4662 17.506 15.5444 17.4483 15.6021C17.3906 15.6599 17.3123 15.6923 17.2307 15.6923Z" fill="#EF9AA3"/>
<path d="M5.53831 4.61553C5.2935 4.61553 5.05871 4.71279 4.8856 4.8859C4.71249 5.05901 4.61523 5.2938 4.61523 5.53861C4.61523 5.78343 4.71249 6.01822 4.8856 6.19133C5.05871 6.36444 5.2935 6.46169 5.53831 6.46169C5.78313 6.46169 6.01791 6.36444 6.19103 6.19133C6.36414 6.01822 6.46139 5.78343 6.46139 5.53861C6.46139 5.2938 6.36414 5.05901 6.19103 4.8859C6.01791 4.71279 5.78313 4.61553 5.53831 4.61553ZM12.3075 3.38477C12.0627 3.38477 11.8279 3.48202 11.6548 3.65513C11.4817 3.82824 11.3845 4.06303 11.3845 4.30784C11.3845 4.55266 11.4817 4.78745 11.6548 4.96056C11.8279 5.13367 12.0627 5.23092 12.3075 5.23092C12.5524 5.23092 12.7871 5.13367 12.9603 4.96056C13.1334 4.78745 13.2306 4.55266 13.2306 4.30784C13.2306 4.06303 13.1334 3.82824 12.9603 3.65513C12.7871 3.48202 12.5524 3.38477 12.3075 3.38477ZM8.92293 10.1478C8.59651 10.1478 8.28346 10.2775 8.05264 10.5083C7.82183 10.7391 7.69216 11.0522 7.69216 11.3786C7.69216 11.705 7.82183 12.0181 8.05264 12.2489C8.28346 12.4797 8.59651 12.6094 8.92293 12.6094C9.24935 12.6094 9.5624 12.4797 9.79321 12.2489C10.024 12.0181 10.1537 11.705 10.1537 11.3786C10.1537 11.0522 10.024 10.7391 9.79321 10.5083C9.5624 10.2775 9.24935 10.1478 8.92293 10.1478Z" fill="#FCEAED"/>
<path d="M2.76949 13.5386C2.68789 13.5386 2.60963 13.571 2.55192 13.6287C2.49422 13.6864 2.4618 13.7647 2.4618 13.8463V14.4617C2.4618 14.5433 2.49422 14.6215 2.55192 14.6792C2.60963 14.7369 2.68789 14.7693 2.76949 14.7693C2.8511 14.7693 2.92936 14.7369 2.98707 14.6792C3.04477 14.6215 3.07719 14.5433 3.07719 14.4617V13.8463C3.07719 13.7647 3.04477 13.6864 2.98707 13.6287C2.92936 13.571 2.8511 13.5386 2.76949 13.5386ZM1.23103 13.5386C1.14943 13.5386 1.07116 13.571 1.01346 13.6287C0.955757 13.6864 0.92334 13.7647 0.92334 13.8463V14.4617C0.92334 14.5433 0.955757 14.6215 1.01346 14.6792C1.07116 14.7369 1.14943 14.7693 1.23103 14.7693C1.31264 14.7693 1.3909 14.7369 1.4486 14.6792C1.50631 14.6215 1.53872 14.5433 1.53872 14.4617V13.8463C1.53872 13.7647 1.50631 13.6864 1.4486 13.6287C1.3909 13.571 1.31264 13.5386 1.23103 13.5386ZM7.38488 13.5386C7.30327 13.5386 7.22501 13.571 7.16731 13.6287C7.1096 13.6864 7.07719 13.7647 7.07719 13.8463V14.4617C7.07719 14.5433 7.1096 14.6215 7.16731 14.6792C7.22501 14.7369 7.30327 14.7693 7.38488 14.7693C7.46648 14.7693 7.54475 14.7369 7.60245 14.6792C7.66015 14.6215 7.69257 14.5433 7.69257 14.4617V13.8463C7.69257 13.7647 7.66015 13.6864 7.60245 13.6287C7.54475 13.571 7.46648 13.5386 7.38488 13.5386ZM8.92334 13.5386C8.84173 13.5386 8.76347 13.571 8.70577 13.6287C8.64807 13.6864 8.61565 13.7647 8.61565 13.8463V14.4617C8.61565 14.5433 8.64807 14.6215 8.70577 14.6792C8.76347 14.7369 8.84173 14.7693 8.92334 14.7693C9.00494 14.7693 9.08321 14.7369 9.14091 14.6792C9.19862 14.6215 9.23103 14.5433 9.23103 14.4617V13.8463C9.23103 13.7647 9.19862 13.6864 9.14091 13.6287C9.08321 13.571 9.00494 13.5386 8.92334 13.5386ZM10.4618 13.5386C10.3802 13.5386 10.3019 13.571 10.2442 13.6287C10.1865 13.6864 10.1541 13.7647 10.1541 13.8463V14.4617C10.1541 14.5433 10.1865 14.6215 10.2442 14.6792C10.3019 14.7369 10.3802 14.7693 10.4618 14.7693C10.5434 14.7693 10.6217 14.7369 10.6794 14.6792C10.7371 14.6215 10.7695 14.5433 10.7695 14.4617V13.8463C10.7695 13.7647 10.7371 13.6864 10.6794 13.6287C10.6217 13.571 10.5434 13.5386 10.4618 13.5386ZM12.0003 13.5386C11.9187 13.5386 11.8404 13.571 11.7827 13.6287C11.725 13.6864 11.6926 13.7647 11.6926 13.8463V14.4617C11.6926 14.5433 11.725 14.6215 11.7827 14.6792C11.8404 14.7369 11.9187 14.7693 12.0003 14.7693C12.0819 14.7693 12.1601 14.7369 12.2178 14.6792C12.2755 14.6215 12.308 14.5433 12.308 14.4617V13.8463C12.308 13.7647 12.2755 13.6864 12.2178 13.6287C12.1601 13.571 12.0819 13.5386 12.0003 13.5386ZM13.5387 13.5386C13.4571 13.5386 13.3789 13.571 13.3212 13.6287C13.2634 13.6864 13.231 13.7647 13.231 13.8463V14.4617C13.231 14.5433 13.2634 14.6215 13.3212 14.6792C13.3789 14.7369 13.4571 14.7693 13.5387 14.7693C13.6203 14.7693 13.6986 14.7369 13.7563 14.6792C13.814 14.6215 13.8464 14.5433 13.8464 14.4617V13.8463C13.8464 13.7647 13.814 13.6864 13.7563 13.6287C13.6986 13.571 13.6203 13.5386 13.5387 13.5386ZM15.0772 13.5386C14.9956 13.5386 14.9173 13.571 14.8596 13.6287C14.8019 13.6864 14.7695 13.7647 14.7695 13.8463V14.4617C14.7695 14.5433 14.8019 14.6215 14.8596 14.6792C14.9173 14.7369 14.9956 14.7693 15.0772 14.7693C15.1588 14.7693 15.2371 14.7369 15.2948 14.6792C15.3525 14.6215 15.3849 14.5433 15.3849 14.4617V13.8463C15.3849 13.7647 15.3525 13.6864 15.2948 13.6287C15.2371 13.571 15.1588 13.5386 15.0772 13.5386ZM16.6156 13.5386C16.534 13.5386 16.4558 13.571 16.3981 13.6287C16.3404 13.6864 16.308 13.7647 16.308 13.8463V14.4617C16.308 14.5433 16.3404 14.6215 16.3981 14.6792C16.4558 14.7369 16.534 14.7693 16.6156 14.7693C16.6973 14.7693 16.7755 14.7369 16.8332 14.6792C16.8909 14.6215 16.9233 14.5433 16.9233 14.4617V13.8463C16.9233 13.7647 16.8909 13.6864 16.8332 13.6287C16.7755 13.571 16.6973 13.5386 16.6156 13.5386ZM4.30796 13.5386C4.22635 13.5386 4.14809 13.571 4.09038 13.6287C4.03268 13.6864 4.00026 13.7647 4.00026 13.8463V14.4617C4.00026 14.5433 4.03268 14.6215 4.09038 14.6792C4.14809 14.7369 4.22635 14.7693 4.30796 14.7693C4.38956 14.7693 4.46782 14.7369 4.52553 14.6792C4.58323 14.6215 4.61565 14.5433 4.61565 14.4617V13.8463C4.61565 13.7647 4.58323 13.6864 4.52553 13.6287C4.46782 13.571 4.38956 13.5386 4.30796 13.5386ZM5.84642 13.5386C5.76481 13.5386 5.68655 13.571 5.62885 13.6287C5.57114 13.6864 5.53872 13.7647 5.53872 13.8463V14.4617C5.53872 14.5433 5.57114 14.6215 5.62885 14.6792C5.68655 14.7369 5.76481 14.7693 5.84642 14.7693C5.92802 14.7693 6.00629 14.7369 6.06399 14.6792C6.12169 14.6215 6.15411 14.5433 6.15411 14.4617V13.8463C6.15411 13.7647 6.12169 13.6864 6.06399 13.6287C6.00629 13.571 5.92802 13.5386 5.84642 13.5386Z" fill="#DD3646"/>
<path d="M16.9231 0H0.923077C0.678262 0 0.443473 0.0972525 0.270363 0.270363C0.0972525 0.443474 0 0.678262 0 0.923077V15.0769C0 15.3217 0.0972525 15.5565 0.270363 15.7296C0.443473 15.9027 0.678262 16 0.923077 16H16.9231C17.1679 16 17.4027 15.9027 17.5758 15.7296C17.7489 15.5565 17.8462 15.3217 17.8462 15.0769V0.923077C17.8462 0.678262 17.7489 0.443474 17.5758 0.270363C17.4027 0.0972525 17.1679 0 16.9231 0ZM17.2308 15.0769C17.2308 15.1585 17.1984 15.2368 17.1406 15.2945C17.0829 15.3522 17.0047 15.3846 16.9231 15.3846H0.923077C0.841472 15.3846 0.763209 15.3522 0.705506 15.2945C0.647802 15.2368 0.615385 15.1585 0.615385 15.0769V0.923077C0.615385 0.841472 0.647802 0.763209 0.705506 0.705506C0.763209 0.647802 0.841472 0.615385 0.923077 0.615385H16.9231C17.0047 0.615385 17.0829 0.647802 17.1406 0.705506C17.1984 0.763209 17.2308 0.841472 17.2308 0.923077V15.0769Z" fill="#DD3646"/>
<path d="M13.2307 5.53851C13.3123 5.53851 13.3906 5.5061 13.4483 5.44839C13.506 5.39069 13.5384 5.31243 13.5384 5.23082V3.38467C13.5384 3.30306 13.506 3.2248 13.4483 3.1671C13.3906 3.10939 13.3123 3.07697 13.2307 3.07697H11.3845C11.3029 3.07697 11.2247 3.10939 11.167 3.1671C11.1093 3.2248 11.0769 3.30306 11.0769 3.38467V5.23082C11.0769 5.31243 11.1093 5.39069 11.167 5.44839C11.2247 5.5061 11.3029 5.53851 11.3845 5.53851H11.9999V5.84621C11.9996 6.04406 11.9344 6.23635 11.8144 6.39362C11.6944 6.5509 11.5261 6.66448 11.3353 6.71697L9.73224 7.1539C9.55218 7.19903 9.3821 7.27728 9.2307 7.38467V2.27697L9.93531 2.98159C9.99417 3.032 10.0699 3.05834 10.1473 3.05535C10.2248 3.05236 10.2982 3.02025 10.353 2.96546C10.4078 2.91066 10.4399 2.8372 10.4429 2.75976C10.4459 2.68232 10.4196 2.60661 10.3692 2.54774L9.13839 1.31697C9.1094 1.28786 9.07488 1.26484 9.03685 1.24928C9.01537 1.24702 8.99371 1.24702 8.97224 1.24928C8.95567 1.24234 8.93789 1.23877 8.91993 1.23877C8.90197 1.23877 8.88419 1.24234 8.86762 1.24928C8.84614 1.24702 8.82448 1.24702 8.803 1.24928C8.76498 1.26484 8.73045 1.28786 8.70147 1.31697L7.4707 2.54774C7.42029 2.60661 7.39395 2.68232 7.39694 2.75976C7.39993 2.8372 7.43203 2.91066 7.48683 2.96546C7.54163 3.02025 7.61509 3.05236 7.69253 3.05535C7.76997 3.05834 7.84568 3.032 7.90454 2.98159L8.61531 2.27697V8.61544C8.46532 8.50151 8.29516 8.41695 8.11377 8.3662L6.5107 7.92928C6.32294 7.87767 6.15685 7.76685 6.03711 7.6133C5.91737 7.45974 5.85038 7.27165 5.84608 7.07697V6.72313C6.13613 6.64824 6.38891 6.47013 6.55704 6.2222C6.72516 5.97427 6.79709 5.67353 6.75935 5.37636C6.7216 5.07919 6.57677 4.80598 6.352 4.60795C6.12723 4.40993 5.83795 4.30067 5.53839 4.30067C5.23883 4.30067 4.94955 4.40993 4.72478 4.60795C4.50001 4.80598 4.35518 5.07919 4.31743 5.37636C4.27968 5.67353 4.35162 5.97427 4.51974 6.2222C4.68787 6.47013 4.94065 6.64824 5.2307 6.72313V7.07697C5.23091 7.4097 5.34029 7.73316 5.54205 7.99773C5.74381 8.2623 6.02681 8.45336 6.34762 8.54159L7.9507 8.97851C8.14121 9.0304 8.30942 9.1434 8.42949 9.30016C8.54956 9.45691 8.61484 9.64875 8.61531 9.8462V9.87697C8.24176 9.95322 7.90983 10.1655 7.68387 10.4725C7.45791 10.7796 7.35401 11.1597 7.39233 11.539C7.43065 11.9183 7.60845 12.2699 7.89127 12.5256C8.17408 12.7812 8.54175 12.9228 8.923 12.9228C9.30426 12.9228 9.67193 12.7812 9.95474 12.5256C10.2376 12.2699 10.4154 11.9183 10.4537 11.539C10.492 11.1597 10.3881 10.7796 10.1621 10.4725C9.93618 10.1655 9.60425 9.95322 9.2307 9.87697V8.61544C9.23117 8.41798 9.29645 8.22614 9.41652 8.06939C9.53659 7.91263 9.7048 7.79963 9.89531 7.74774L11.4984 7.31082C11.8192 7.22259 12.1022 7.03153 12.304 6.76696C12.5057 6.50239 12.6151 6.17893 12.6153 5.84621V5.53851H13.2307ZM4.923 5.53851C4.92287 5.40302 4.96745 5.27127 5.04984 5.1637C5.13222 5.05613 5.24781 4.97876 5.37866 4.94359C5.50951 4.90842 5.64831 4.91742 5.77352 4.96919C5.89874 5.02096 6.00336 5.11261 6.07117 5.22992C6.13898 5.34722 6.16617 5.48363 6.14854 5.61797C6.13091 5.75231 6.06943 5.87708 5.97364 5.97291C5.87786 6.06875 5.75312 6.13029 5.61879 6.14799C5.48446 6.16569 5.34804 6.13857 5.2307 6.07082C5.13724 6.01686 5.05961 5.93928 5.00561 5.84585C4.9516 5.75242 4.92312 5.64643 4.923 5.53851ZM9.84608 11.3847C9.84555 11.5751 9.78612 11.7607 9.67595 11.9161C9.56577 12.0714 9.41025 12.1889 9.2307 12.2524C9.0322 12.3261 8.81381 12.3261 8.61531 12.2524C8.43711 12.1877 8.28315 12.0697 8.17434 11.9145C8.06553 11.7592 8.00717 11.5742 8.00717 11.3847C8.00717 11.1951 8.06553 11.0101 8.17434 10.8549C8.28315 10.6996 8.43711 10.5817 8.61531 10.517C8.81381 10.4432 9.0322 10.4432 9.2307 10.517C9.41025 10.5805 9.56577 10.6979 9.67595 10.8533C9.78612 11.0086 9.84555 11.1942 9.84608 11.3847ZM11.6922 4.92313V3.69236H12.923V4.92313H11.6922Z" fill="#DD3646"/>
</svg>

<svg width="18" height="16" fill="none" xmlns="http://www.w3.org/2000/svg"><path d="M16.923.308h-16a.615.615 0 0 0-.615.615v14.154c0 .34.275.615.615.615h16c.34 0 .615-.275.615-.615V.923a.615.615 0 0 0-.615-.615Z" fill="#EF9AA3"/><path d="M17.23 15.692H.616a.307.307 0 0 1-.307-.307 1.23 1.23 0 0 1 1.23-1.231h14.77a1.23 1.23 0 0 1 1.23 1.23.308.308 0 0 1-.307.308Z" fill="#EF9AA3"/><path d="M5.538 4.616a.923.923 0 1 0 0 1.846.923.923 0 0 0 0-1.846Zm6.77-1.231a.923.923 0 1 0 0 1.846.923.923 0 0 0 0-1.846Zm-3.385 6.763a1.23 1.23 0 1 0 0 2.462 1.23 1.23 0 0 0 0-2.462Z" fill="#FCEAED"/><path d="M2.77 13.539a.308.308 0 0 0-.308.307v.616a.308.308 0 0 0 .615 0v-.616a.308.308 0 0 0-.308-.307Zm-1.539 0a.308.308 0 0 0-.308.307v.616a.308.308 0 0 0 .616 0v-.616a.308.308 0 0 0-.308-.307Zm6.154 0a.308.308 0 0 0-.308.307v.616a.308.308 0 1 0 .616 0v-.616a.308.308 0 0 0-.308-.307Zm1.538 0a.308.308 0 0 0-.307.307v.616a.308.308 0 0 0 .615 0v-.616a.308.308 0 0 0-.308-.307Zm1.539 0a.308.308 0 0 0-.308.307v.616a.308.308 0 1 0 .616 0v-.616a.308.308 0 0 0-.308-.307Zm1.538 0a.308.308 0 0 0-.307.307v.616a.308.308 0 1 0 .615 0v-.616A.308.308 0 0 0 12 13.54Zm1.539 0a.308.308 0 0 0-.308.307v.616a.307.307 0 1 0 .615 0v-.616a.308.308 0 0 0-.307-.307Zm1.538 0a.308.308 0 0 0-.307.307v.616a.308.308 0 1 0 .615 0v-.616a.308.308 0 0 0-.308-.307Zm1.539 0a.308.308 0 0 0-.308.307v.616a.308.308 0 1 0 .615 0v-.616a.308.308 0 0 0-.307-.307Zm-12.308 0a.308.308 0 0 0-.308.307v.616a.308.308 0 0 0 .616 0v-.616a.308.308 0 0 0-.308-.307Zm1.538 0a.308.308 0 0 0-.307.307v.616a.308.308 0 0 0 .615 0v-.616a.308.308 0 0 0-.308-.307Z" fill="#DD3646"/><path d="M16.923 0h-16A.923.923 0 0 0 0 .923v14.154A.923.923 0 0 0 .923 16h16a.923.923 0 0 0 .923-.923V.923A.923.923 0 0 0 16.923 0Zm.308 15.077a.307.307 0 0 1-.308.308h-16a.308.308 0 0 1-.308-.308V.923A.308.308 0 0 1 .923.615h16a.308.308 0 0 1 .308.308v14.154Z" fill="#DD3646"/><path d="M13.23 5.539a.308.308 0 0 0 .308-.308V3.385a.308.308 0 0 0-.307-.308h-1.847a.308.308 0 0 0-.307.308V5.23a.308.308 0 0 0 .307.308H12v.307a.905.905 0 0 1-.665.871l-1.603.437c-.18.045-.35.123-.501.23V2.278l.704.705a.308.308 0 0 0 .434-.434L9.14 1.317a.308.308 0 0 0-.102-.068.309.309 0 0 0-.065 0 .135.135 0 0 0-.104 0 .309.309 0 0 0-.065 0 .308.308 0 0 0-.102.068l-1.23 1.23a.308.308 0 0 0 .434.435l.71-.705v6.338a1.495 1.495 0 0 0-.501-.249L6.51 7.93a.905.905 0 0 1-.665-.852v-.354a1.23 1.23 0 1 0-.615 0v.354a1.52 1.52 0 0 0 1.117 1.465l1.603.437a.902.902 0 0 1 .664.867v.031a1.539 1.539 0 1 0 .616 0V8.615a.901.901 0 0 1 .664-.867l1.603-.437a1.52 1.52 0 0 0 1.117-1.465V5.54h.616Zm-8.307 0a.615.615 0 1 1 1.23-.002.615.615 0 0 1-1.23.002Zm4.923 5.846a.923.923 0 0 1-1.23.867.923.923 0 0 1 0-1.735.883.883 0 0 1 .615 0 .923.923 0 0 1 .615.868Zm1.846-6.462v-1.23h1.231v1.23h-1.23Z" fill="#DD3646"/></svg>
